!!!OTL: Siji Songhuaibei
!!!ARE: Asia, China,ÿAnhui Wuhe
!! III, 532
!!!SCT: C2043
!!!YEM: Copyright 1995, estate of Helmut Schaffrath.
**kern
*ICvox
*Ivox
*M2/4
*k[f#c#]
*D:
{8.ee
16ff#
8.dd
8b
=1
8.ee
16ff#
16ee
16ff#
8b
=2
8.a
16f#
8a
8b
=3
4.dd
8b}
=4
{8dd
16ee
16ff#
8b
8a
=5
8.f#
16a
8e
8d
=6
8a
16a
16f#
8a
8b
=7
2dd}
=8
{16ee
16ff#
16ee
16b
8.dd
16ff#
=9
16ee
16dd
8b
4a
=10
8a
16b
16dd
16b
16a
16f#
16a
=11
8.e
16d
8.e
16f#
=12
8a
16b
16dd
16b
16a
16f#
16a
=13
2e}
=14
{8.a
16b
8.dd
16ff#
=15
8ee
16dd
16b
4a
=16
8dd
16ee
16ff#
8ee
8dd
=17
8b
8cc#
8b
8a
=18
8.e
16d
16e
16d
16e
16f#
=19
2a}
=20
{8dd
16ee
16ff#
8ee
8dd
=21
8b
16a
16b
8dd
8a
=22
2b}
==
!!!AGN: Xiaodiao
!!!AMT: simple duple
!!!AIN: vox
!!!EED: Helmut Schaffrath
!!!EEV: 1.0
*-
